assets/Troll/Flat/troll_flat.svg

<svg width="32" height="32" viewBox="0 0 32 32" fill="none" xmlns="http://www.w3.org/2000/svg">
<path d="M15.8046 4.00293H13.4493C10.805 4.00293 9.12422 6.06495 9.12421 8.77621L9.16649 9.4016C8.14536 8.75457 6.95034 8.16615 6.60716 8.50933C6.03716 9.07933 8.02716 11.9993 8.59716 12.5693C8.82544 12.8016 9.11146 12.9409 9.40898 12.9877L9.52032 14.6343C9.67112 15.7146 10.2556 16.6464 11.0915 17.2734C6.41578 18.7727 3.03125 23.1558 3.03125 28.3294V30.0028H26.2476V28.3294C26.2476 23.1593 22.8677 18.7786 18.1968 17.2764C19.0361 16.6494 19.6253 15.7164 19.7764 14.6343L19.8646 12.9955C20.1767 12.9567 20.4785 12.818 20.7172 12.5793C21.2872 12.0093 23.2772 9.08927 22.7072 8.51927C22.3536 8.1656 21.0952 8.7975 20.0548 9.46425L20.0927 8.75883C20.304 6.15667 18.4489 4.00293 15.8046 4.00293Z" fill="#96C34A"/>
<path d="M11.6395 17.1128V30.003H5.04397C4.85812 30.003 4.73725 29.8074 4.82036 29.6412L5.5671 28.1477C5.60035 28.0812 5.552 28.003 5.47766 28.003H5.04397C4.85812 28.003 4.73725 27.8074 4.82036 27.6412L5.5671 26.1477C5.60035 26.0812 5.552 26.003 5.47766 26.003H5.04397C4.85812 26.003 4.73725 25.8074 4.82036 25.6412L5.5671 24.1477C5.60035 24.0812 5.552 24.003 5.47766 24.003H4.98632C4.81568 24.003 4.69526 23.8356 4.75124 23.6744C5.99282 20.0996 7.52982 18.2091 11.6395 17.1128Z" fill="#B97028"/>
<path d="M17.6395 17.1128V30.003H24.235C24.4209 30.003 24.5417 29.8074 24.4586 29.6412L23.7119 28.1477C23.6786 28.0812 23.727 28.003 23.8013 28.003H24.235C24.4209 28.003 24.5417 27.8074 24.4586 27.6412L23.7119 26.1477C23.6786 26.0812 23.727 26.003 23.8013 26.003H24.235C24.4209 26.003 24.5417 25.8074 24.4586 25.6412L23.7119 24.1477C23.6786 24.0812 23.727 24.003 23.8013 24.003H24.2927C24.4633 24.003 24.5837 23.8356 24.5277 23.6744C23.2862 20.0996 21.7492 18.2091 17.6395 17.1128Z" fill="#B97028"/>
<path d="M12.3738 6.00293C12.3738 6.41714 12.0381 6.75293 11.6238 6.75293C11.2096 6.75293 10.8738 6.41714 10.8738 6.00293C10.8738 5.58872 11.2096 5.25293 11.6238 5.25293C12.0381 5.25293 12.3738 5.58872 12.3738 6.00293Z" fill="#44911B"/>
<path d="M14.1824 6.65918C14.1824 6.93532 13.9586 7.15918 13.6824 7.15918C13.4063 7.15918 13.1824 6.93532 13.1824 6.65918C13.1824 6.38304 13.4063 6.15918 13.6824 6.15918C13.9586 6.15918 14.1824 6.38304 14.1824 6.65918Z" fill="#44911B"/>
<path d="M13.3456 12.7426C13.0838 12.8944 12.7797 12.9813 12.4552 12.9813C11.4733 12.9813 10.6772 12.1853 10.6772 11.2033C10.6772 10.2213 11.4733 9.42529 12.4552 9.42529C13.3584 9.42529 14.1043 10.0987 14.2182 10.9708L14.2784 10.8485C14.4257 10.5495 14.8527 10.5512 14.9975 10.8514L15.2173 11.3071C15.2154 11.2727 15.2144 11.2381 15.2144 11.2033C15.2144 10.2213 16.0104 9.42529 16.9924 9.42529C17.9743 9.42529 18.7704 10.2213 18.7704 11.2033C18.7704 12.1853 17.9743 12.9813 16.9924 12.9813C16.5366 12.9813 16.1209 12.8098 15.8063 12.5279L16.0074 12.9448C16.1355 13.2104 15.942 13.5186 15.6471 13.5186H13.6064C13.3101 13.5186 13.1166 13.2077 13.2475 12.9419L13.3456 12.7426Z" fill="#44911B"/>
<path d="M26.0074 23.0029C26.5574 23.0029 27.0074 23.4133 27.0074 23.9148V26.0029H25.0074V23.9148C25.0174 23.4133 25.4574 23.0029 26.0074 23.0029Z" fill="#44911B"/>
<path d="M22.0404 25.5029C22.0495 25.1029 22.3683 24.7529 22.7418 24.7529H26.2149C26.6521 24.7529 27.0074 25.1429 27.0074 25.6229V29.1329C27.0074 29.6129 26.6521 30.0029 26.2149 30.0029H22.7418C22.3683 30.0029 22.0495 29.6929 22.0404 29.2829C22.0312 29.0129 22.1497 28.7729 22.341 28.6329C22.1497 28.5029 22.0312 28.2729 22.0312 28.0129C22.0312 27.7529 22.1588 27.5229 22.341 27.3929C22.1497 27.2629 22.0312 27.0329 22.0312 26.7729C22.0312 26.5129 22.1588 26.2829 22.341 26.1529C22.1588 26.0129 22.0312 25.7729 22.0404 25.5029Z" fill="#96C34A"/>
<path d="M12.6395 14.7528V13.8873C12.6395 13.7979 12.7479 13.7534 12.8107 13.8171L13.7332 14.7528H12.6395Z" fill="#FEEFC2"/>
<path d="M16.6395 14.7528V13.8873C16.6395 13.7979 16.531 13.7534 16.4683 13.8171L15.5457 14.7528H16.6395Z" fill="#FEEFC2"/>
<path d="M13.5264 12.3756C13.2767 12.5412 12.9772 12.6377 12.6551 12.6377C11.7835 12.6377 11.077 11.9311 11.077 11.0596C11.077 10.188 11.7835 9.48145 12.6551 9.48145C13.4892 9.48145 14.1722 10.1286 14.2293 10.9482L13.5264 12.3756Z" fill="#FFCE7C"/>
<path d="M15.5923 12.0843C15.8817 12.423 16.312 12.6377 16.7925 12.6377C17.6641 12.6377 18.3706 11.9311 18.3706 11.0596C18.3706 10.188 17.6641 9.48145 16.7925 9.48145C15.9209 9.48145 15.2144 10.188 15.2144 11.0596C15.2144 11.1624 15.2242 11.2629 15.243 11.3602L15.5923 12.0843Z" fill="#FFCE7C"/>
<path d="M12.655 11.6474C12.3304 11.6474 12.0672 11.3842 12.0672 11.0595C12.0672 10.7349 12.3304 10.4717 12.655 10.4717C12.9797 10.4717 13.2429 10.7349 13.2429 11.0595C13.2429 11.3842 12.9797 11.6474 12.655 11.6474Z" fill="#990838"/>
<path d="M16.7925 11.6474C16.4678 11.6474 16.2047 11.3842 16.2047 11.0595C16.2047 10.7349 16.4678 10.4717 16.7925 10.4717C17.1172 10.4717 17.3803 10.7349 17.3803 11.0595C17.3803 11.3842 17.1172 11.6474 16.7925 11.6474Z" fill="#990838"/>
<path d="M14.1001 13.2803C14.2511 13.2803 14.3735 13.1579 14.3735 13.0068C14.3735 12.8558 14.2511 12.7334 14.1001 12.7334C13.9491 12.7334 13.8267 12.8558 13.8267 13.0068C13.8267 13.1579 13.9491 13.2803 14.1001 13.2803Z" fill="black"/>
<path d="M15.2144 13.2803C15.3654 13.2803 15.4878 13.1579 15.4878 13.0068C15.4878 12.8558 15.3654 12.7334 15.2144 12.7334C15.0633 12.7334 14.9409 12.8558 14.9409 13.0068C14.9409 13.1579 15.0633 13.2803 15.2144 13.2803Z" fill="black"/>
<path d="M22.9257 16.464C23.0704 16.1747 23.0661 15.8333 22.9144 15.5477L21.265 12.443C21.1115 12.154 21.0312 11.8318 21.0312 11.5047V7.99822C21.0312 7.37136 21.3252 6.78076 21.8252 6.40276L24.603 4.30302C24.853 4.11401 25 3.81871 25 3.50528V3.00293C25 2.45064 25.4477 2.00293 26 2.00293H26.5777C27.13 2.00293 27.5777 2.45064 27.5777 3.00293L28 9.05866C28 9.67964 27.8554 10.2921 27.5777 10.8475L25.8906 14.341C25.7301 14.662 25.7539 15.0443 25.953 15.3429L26.7378 16.5201C26.9368 16.8187 26.9606 17.201 26.8001 17.522L25.2031 20.7918C25.1575 20.8829 25.1263 20.9802 25.1102 21.0803C25.0935 21.1845 25.0808 21.2901 25.048 21.3905L23.948 24.7529H23.1562V24.239C23.1562 24.0838 23.1201 23.9306 23.0507 23.7918L21.9853 21.661C22.1413 21.073 22.2473 20.5888 22.3128 20.2615C22.3741 19.9553 22.3732 19.6413 22.3243 19.3328L22.1239 18.0677L22.9257 16.464Z" fill="#7D4533"/>
<path d="M23.8959 24.7529H26V21.239C26 21.0838 26.0361 20.9306 26.1056 20.7918L27.7405 17.522C27.901 17.201 27.8772 16.8187 27.6781 16.5201L26.8933 15.3429C26.6943 15.0443 26.6705 14.662 26.831 14.341L28.5777 10.8475C28.8554 10.2921 29 9.67964 29 9.05866V3.00293C29 2.45064 28.5523 2.00293 28 2.00293H26C25.9825 2.00293 25.9652 2.00338 25.948 2.00426C26.4761 2.03133 26.8959 2.4681 26.8959 3.00293V6.3332L24.2503 7.85864C24.0954 7.94792 24 8.11306 24 8.2918V9.50293C24 9.77907 24.2239 10.0029 24.5 10.0029H26.7829C26.7121 10.2942 26.6086 10.5776 26.4736 10.8475L24.7269 14.341C24.5664 14.662 24.5902 15.0443 24.7893 15.3429L25.574 16.5201C25.7731 16.8187 25.7969 17.201 25.6364 17.522L24.0015 20.7918C23.9321 20.9306 23.8959 21.0838 23.8959 21.239V24.7529Z" fill="#5C2614"/>
<path d="M21.8271 21.3446L22.0229 21.7361L23.8455 18.7643C24.0499 18.4312 23.8101 18.0029 23.4193 18.0029H22.1563L21.8271 18.6613C21.4048 19.5059 21.4048 20.5 21.8271 21.3446Z" fill="#5C2614"/>
<path d="M11.9904 4.11083C11.9904 4.19466 12.0324 4.27291 12.1023 4.31922L14.0848 5.63307C14.4207 5.85701 14.8583 5.85701 15.1942 5.63307L17.1633 4.32034C17.2328 4.27397 17.2746 4.19592 17.2746 4.11233V3.67119C17.2746 2.99642 16.5989 2.57155 16.0136 2.79129C15.8847 2.83971 15.7294 2.81806 15.6491 2.70616L15.4863 2.47944C15.0966 1.84019 14.1684 1.84019 13.7787 2.47944L13.6159 2.70616C13.5356 2.81806 13.3803 2.83971 13.2514 2.79129C12.6661 2.57155 11.9904 2.99642 11.9904 3.67119V4.11083Z" fill="#321B41"/>
<path d="M10.6611 8.4534C10.4554 8.62483 10.4158 8.92308 10.575 9.13729C10.6762 9.27746 10.8309 9.32478 10.9688 9.32478C11.0567 9.32478 11.1607 9.30875 11.2584 9.22241L11.262 9.22021C11.3614 9.15776 11.9107 8.81326 12.6665 8.90064C12.9314 8.93487 13.1849 8.74352 13.2071 8.46849C13.2403 8.19231 13.0354 7.96724 12.7809 7.93331L12.7781 7.93298C11.5932 7.79166 10.7749 8.37189 10.6798 8.43943L10.6765 8.44176L10.675 8.44283L10.6678 8.44781L10.6611 8.4534Z" fill="#321B41"/>
<path d="M17.9125 9.21756L17.9112 9.21647C17.908 9.21416 17.9018 9.20977 17.8936 9.20424C17.8771 9.19323 17.8518 9.17708 17.8183 9.15777C17.7512 9.11913 17.6524 9.06855 17.5271 9.02137C17.2766 8.92697 16.9245 8.84755 16.5101 8.90047C16.2447 8.9355 15.9904 8.74395 15.9682 8.46844C15.9368 8.20496 16.1279 7.95402 16.4018 7.93244C17.5321 7.7993 18.3276 8.32272 18.4827 8.42476L18.4937 8.4319L18.5023 8.43623L18.5167 8.44705C18.7365 8.61185 18.7674 8.91805 18.6096 9.12856C18.5037 9.26972 18.3563 9.32478 18.2171 9.32478C18.109 9.32478 18.0014 9.28866 17.9125 9.21756Z" fill="#321B41"/>
<path d="M12.8895 14.5029C12.7514 14.5029 12.6395 14.6149 12.6395 14.7529C12.6395 14.891 12.7514 15.0029 12.8895 15.0029H13.6395L12.5353 16.1071C12.3906 16.2518 12.1724 16.2937 11.9844 16.213L10.5729 15.6067C10.2056 15.4489 9.96759 15.0876 9.96759 14.6879V9.18262C9.96759 8.94531 9.77521 8.75293 9.5379 8.75293C9.30059 8.75293 9.10822 8.94531 9.10822 9.18262V15.6012C9.10822 16.3636 9.54172 17.0598 10.226 17.3961L13.2853 18.8998C14.1199 19.31 15.0975 19.31 15.932 18.8998L18.9913 17.3961C19.6756 17.0598 20.1091 16.3636 20.1091 15.6012V9.18262C20.1091 8.94531 19.9167 8.75293 19.6794 8.75293C19.4421 8.75293 19.2497 8.94531 19.2497 9.18262V14.6879C19.2497 15.0876 19.0117 15.4489 18.6444 15.6067L17.2329 16.213C17.0449 16.2937 16.8267 16.2518 16.682 16.1071L15.5779 15.0029H16.3895C16.5275 15.0029 16.6395 14.891 16.6395 14.7529C16.6395 14.6149 16.5275 14.5029 16.3895 14.5029H12.8895Z" fill="#321B41"/>
<path d="M12.4599 23.1921C12.25 23.1921 12.1336 22.9491 12.265 22.7855L14.4123 20.1123C14.5124 19.9877 14.7021 19.9877 14.8021 20.1123L16.9495 22.7855C17.0809 22.9491 16.9644 23.1921 16.7546 23.1921H16.4599C16.383 23.1921 16.3349 23.2752 16.3731 23.3418L17.0613 24.5415C17.1569 24.7081 17.0366 24.9158 16.8444 24.9158H16.0732C15.9973 24.9158 15.9255 24.9503 15.8781 25.0095L14.8023 26.3516C14.7022 26.4764 14.5123 26.4764 14.4122 26.3516L13.3364 25.0095C13.2889 24.9503 13.2172 24.9158 13.1413 24.9158H12.37C12.1779 24.9158 12.0576 24.7081 12.1532 24.5415L12.8414 23.3418C12.8796 23.2752 12.8315 23.1921 12.7546 23.1921H12.4599Z" fill="#321B41"/>
</svg>

<svg xmlns="http://www.w3.org/2000/svg" width="32" height="32" fill="none"><path fill="#96C34A" d="M15.805 4.003h-2.356c-2.644 0-4.325 2.062-4.325 4.773l.042.626c-1.02-.647-2.216-1.236-2.559-.893-.57.57 1.42 3.49 1.99 4.06.228.233.514.372.812.419l.111 1.646a3.986 3.986 0 0 0 1.572 2.64c-4.676 1.499-8.06 5.882-8.06 11.055v1.674h23.216v-1.674c0-5.17-3.38-9.55-8.051-11.053a3.987 3.987 0 0 0 1.58-2.642l.088-1.639c.312-.038.614-.177.852-.416.57-.57 2.56-3.49 1.99-4.06-.353-.353-1.612.278-2.652.945l.038-.705c.211-2.602-1.644-4.756-4.288-4.756Z"/><path fill="#B97028" d="M11.64 17.113v12.89H5.043a.25.25 0 0 1-.224-.362l.747-1.493a.1.1 0 0 0-.09-.145h-.433a.25.25 0 0 1-.224-.362l.747-1.493a.1.1 0 0 0-.09-.145h-.433a.25.25 0 0 1-.224-.362l.747-1.493a.1.1 0 0 0-.09-.145h-.49a.248.248 0 0 1-.236-.329C5.993 20.1 7.53 18.21 11.64 17.113ZM17.64 17.113v12.89h6.595a.25.25 0 0 0 .224-.362l-.747-1.493a.1.1 0 0 1 .09-.145h.433a.25.25 0 0 0 .224-.362l-.747-1.493a.1.1 0 0 1 .09-.145h.433a.25.25 0 0 0 .224-.362l-.747-1.493a.1.1 0 0 1 .09-.145h.49c.171 0 .292-.167.236-.329-1.242-3.574-2.779-5.465-6.888-6.561Z"/><path fill="#44911B" d="M12.374 6.003a.75.75 0 1 1-1.5 0 .75.75 0 0 1 1.5 0ZM14.182 6.66a.5.5 0 1 1-1 0 .5.5 0 0 1 1 0ZM13.346 12.743a1.778 1.778 0 1 1 .873-1.772l.06-.123a.4.4 0 0 1 .719.003l.22.456a1.778 1.778 0 1 1 .589 1.22l.2.418a.4.4 0 0 1-.36.574h-2.04a.4.4 0 0 1-.36-.577l.099-.2ZM26.007 23.003c.55 0 1 .41 1 .912v2.088h-2v-2.088c.01-.502.45-.912 1-.912Z"/><path fill="#96C34A" d="M22.04 25.503c.01-.4.328-.75.702-.75h3.473c.437 0 .792.39.792.87v3.51c0 .48-.355.87-.792.87h-3.473c-.374 0-.693-.31-.702-.72-.009-.27.11-.51.301-.65a.74.74 0 0 1-.31-.62c0-.26.128-.49.31-.62a.74.74 0 0 1-.31-.62c0-.26.128-.49.31-.62a.79.79 0 0 1-.3-.65Z"/><path fill="#FEEFC2" d="M12.64 14.753v-.866a.1.1 0 0 1 .17-.07l.923.936H12.64ZM16.64 14.753v-.866a.1.1 0 0 0-.172-.07l-.922.936h1.094Z"/><path fill="#FFCE7C" d="M13.526 12.376a1.578 1.578 0 1 1 .703-1.427l-.703 1.427ZM15.592 12.084a1.578 1.578 0 1 0-.35-.724l.35.724Z"/><path fill="#990838" d="M12.655 11.647a.588.588 0 1 1 0-1.175.588.588 0 0 1 0 1.175ZM16.793 11.647a.588.588 0 1 1 0-1.175.588.588 0 0 1 0 1.175Z"/><path fill="#000" d="M14.1 13.28a.273.273 0 1 0 0-.547.273.273 0 0 0 0 .547ZM15.214 13.28a.273.273 0 1 0 0-.547.273.273 0 0 0 0 .547Z"/><path fill="#7D4533" d="M22.926 16.464a1 1 0 0 0-.012-.916l-1.649-3.105a2 2 0 0 1-.234-.938V7.998a2 2 0 0 1 .794-1.595l2.778-2.1A1 1 0 0 0 25 3.505v-.502a1 1 0 0 1 1-1h.578a1 1 0 0 1 1 1L28 9.059a4 4 0 0 1-.422 1.789L25.89 14.34a1 1 0 0 0 .062 1.002l.785 1.177a1 1 0 0 1 .062 1.002l-1.597 3.27a.999.999 0 0 0-.093.288c-.017.105-.03.21-.062.31l-1.1 3.363h-.792v-.514a1 1 0 0 0-.105-.447l-1.066-2.131c.156-.588.262-1.072.328-1.4.061-.306.06-.62.011-.928l-.2-1.265.802-1.604Z"/><path fill="#5C2614" d="M23.896 24.753H26v-3.514c0-.155.036-.308.106-.447l1.634-3.27a1 1 0 0 0-.062-1.002l-.785-1.177a1 1 0 0 1-.062-1.002l1.747-3.493A4 4 0 0 0 29 9.058V3.004a1 1 0 0 0-1-1h-2l-.052.001a1 1 0 0 1 .948.999v3.33L24.25 7.86a.5.5 0 0 0-.25.433v1.21a.5.5 0 0 0 .5.5h2.283a4 4 0 0 1-.31.845l-1.746 3.494a1 1 0 0 0 .062 1.002l.785 1.177a1 1 0 0 1 .062 1.002l-1.634 3.27a1 1 0 0 0-.106.447v3.514Z"/><path fill="#5C2614" d="m21.827 21.345.196.391 1.823-2.972a.5.5 0 0 0-.427-.761h-1.263l-.329.658a3 3 0 0 0 0 2.684Z"/><path fill="#321B41" d="M11.99 4.11a.25.25 0 0 0 .112.21l1.983 1.313a1 1 0 0 0 1.11 0l1.968-1.313a.25.25 0 0 0 .112-.208v-.44a.938.938 0 0 0-1.261-.88c-.13.048-.285.026-.365-.086l-.163-.227a1 1 0 0 0-1.707 0l-.163.227c-.08.112-.236.134-.365.085a.938.938 0 0 0-1.26.88v.44ZM10.661 8.453a.5.5 0 0 0-.086.684c.101.14.256.188.394.188a.414.414 0 0 0 .29-.103l.003-.002a2.2 2.2 0 0 1 1.404-.32.48.48 0 0 0 .541-.432.485.485 0 0 0-.426-.535h-.003a3.078 3.078 0 0 0-2.098.506l-.003.003h-.002l-.007.006-.007.005ZM17.913 9.218l-.002-.002a.701.701 0 0 0-.093-.058A2.119 2.119 0 0 0 16.51 8.9a.48.48 0 0 1-.542-.433.48.48 0 0 1 .434-.536c1.13-.133 1.926.39 2.08.493l.012.007.008.004.015.011c.22.165.25.471.093.682a.487.487 0 0 1-.697.089Z"/><path fill="#321B41" d="M12.89 14.503a.25.25 0 0 0 0 .5h.75l-1.105 1.104a.5.5 0 0 1-.55.106l-1.412-.606a1 1 0 0 1-.605-.92V9.184a.43.43 0 0 0-.86 0V15.6a2 2 0 0 0 1.118 1.795l3.06 1.504a3 3 0 0 0 2.646 0l3.06-1.504a2 2 0 0 0 1.117-1.795V9.183a.43.43 0 0 0-.86 0v5.505a1 1 0 0 1-.605.919l-1.411.606a.5.5 0 0 1-.551-.106l-1.104-1.104h.812a.25.25 0 0 0 0-.5h-3.5ZM12.46 23.192a.25.25 0 0 1-.195-.407l2.147-2.673a.25.25 0 0 1 .39 0l2.148 2.674a.25.25 0 0 1-.195.406h-.295a.1.1 0 0 0-.087.15l.688 1.2a.25.25 0 0 1-.217.374h-.77a.25.25 0 0 0-.196.093l-1.076 1.343a.25.25 0 0 1-.39 0l-1.076-1.343a.25.25 0 0 0-.195-.093h-.771a.25.25 0 0 1-.217-.375l.688-1.2a.1.1 0 0 0-.086-.149h-.295Z"/></svg>
